X:22
T:Fairy Lake Waltz
C:Ward Allen
R:Waltz
L:1/8
M:3/4
Z:abc by Bruce Osborne - bosborne@kos.net
K:A
(3efg|a2 cB cd|ef ec EA|c2 c2 E2|A4 A2|
f4 fe|e4 af|g3 e fe|e4 (3efg|
a2 cB cd|ef ec EA|c2 c2 E2|A4 A2|
f4 fe|e4 a2|gf ed cB|A4:|
|:EA|c4 E2|c4 Bc|d2 c3 B|c4 Ac|
e4 e2|f4 ed|c2 B3 c|d3 f ed|
c4 EA|c4 Bc|d2 c3 B|c4 Ac|
e4 ag|f4 ed|c2 G2 B2|A4:|
